X:210
%%etbk:tnset id:156,pos:1,rep:3x,ant:
%%etbk:wsite http://www.trad.katesplacedoolin.com/tunes/maidsofmitchelstown.html
%%etbk:pldat 2016-07-21T18:55,2015-12-28T17:48,2015-04-28T17:41,2015-01-20T17:43,2014-12-31T15:13,2014-12-14T16:16,2014-09-26T18:09,2014-09-13T16:14,2014-09-10T16:40,2014-04-27T15:09,2014-03-12T18:32,2014-02-25T19:26,2014-02-16T16:12,2014-02-15T16:25,2014-02-05T15:52,2014-02-04T18:38,2013-11-19T17:08,2013-11-12T17:44,2013-11-06T18:16,2013-11-05T18:30,2013-11-04T18:40,2013-05-18T13:52,2013-05-15T16:35,2013-05-14T18:47,2013-05-05T13:40,2013-05-02T18:19
T: Maids of Mitchellstown, The
Z: Piano Box Version by Martin Fleischmann
H: Created 2013-02-19 /  Last Modified 2013-03-27
R: Reel
M: 4/4
K: Ddor
|: "dm"!1!D2!4!AG "am"!2!E!3!G!2!G!3!G | !4!A2GA !5!c!4!A!3!G!2!E | "dm"!1!D2!4!AG "am"!1!E!3!G!2!G!3!G |1 !4!A2!2!G!1!E !2!E!1!D!1!C!2!E:|2 !4!A2!2!G!1!E "dm"!2!E!1!DD2||
|: "C"!1!E!2!G!3!A!4!B !5!c2!4!B!2!G | "dm"!1!A!3!dde !5!f2e!3!d | !4!c!2!A!1!G!2!E !3!F2F!4!G |1 "am"!2!A!4!c!1!G!2!E "dm"!2!E!1!DD2:|2 "am"!2!A!4!c!3!B!5!d !4!c!2!A!1!G!2!E||


